!!!!SEGMENT: T197_Sch-w20p40-42m9i-16.krn
!!!COM: Schoenberg [Schönberg], Arnold (Franz Walter)
!!!OTL: No. 13: Enthauptung (Decapitation)
!!!AGN: Instrumental
!!!AGN-sub: Chamber
!!!CNT: Austrian
!!!ODT: 1912
!!!OPR: Dreimal sieben Gedichte aus Albert Girauds Pierrot lunaire (Three Times Seven Poems from Albert Giraud's 'Pierrot lunaire') for Flute, Clarinet, Violin, Viola, Violincello and Piano, op. 21
!!!filename: T197_Sch-w20p40-42m9i-16.krn
**kern	**dynam	**kern	**dynam	**kern	**text	**dynam	**kern	**dynam	**kern	**dynam	**kern	**dynam
*grp:A	*	*grp:A	*	*grp:B	*	*	*grp:A	*	*grp:A	*	*grp:A	*
*part5	*	*part5	*	*part4	*	*	*part3	*	*part2	*	*part1	*
*staff6	*	*staff5	*	*staff4	*	*	*staff3	*	*staff2	*	*staff1	*
*clefF4	*	*clefG2	*	*clefG2	*	*	*clefF4	*	*clefC3	*	*clefF4	*
*ICklav	*	*	*	*ICvox	*	*	*ICstr	*	*ICstr	*	*ICww	*
*Ipiano	*	*	*	*Isoprn	*	*	*Icello	*	*Iviola	*	*Iclarb	*
*I"Piano	*	*	*	*I"Soprano	*	*	*I"Cello	*	*I"Viola	*	*I"Bass Clarinet in Bb	*
*I'Pno.	*	*	*	*I'Sop.	*	*	*I'Clo.	*	*I'Vla.	*	*I'B. Clar.	*
*	*	*	*	*	*	*	*	*	*	*	*ITrd1c2	*
*k[]	*	*k[]	*	*k[]	*	*	*k[]	*	*k[]	*	*k[b-e-]	*
*M4/4	*	*M4/4	*	*M4/4	*	*	*M4/4	*	*M4/4	*	*M4/4	*
*met(c)	*	*met(c)	*	*met(c)	*	*	*met(c)	*	*met(c)	*	*met(c)	*
=1	=1	=1	=1	=1	=1	=1	=1	=1	=1	=1	=1	=1
!	!	!LO:TX:b:t=[pp]	!	!	!	!	!	!	!	!	!	!
*	*	*	*	*sprech	*	*	*	*	*	*	*	*
*	*	*^	*	*	*	*	*	*	*	*	*	*
!	!	!	!	!	!LO:TX:t=P:problem: Sprechstimme crosses on stem; added *sprech	!	!LO:DY:ed=brack	!	!	!	!	!LO:TX:t=[Ziemlich bewegte [quarter]=126]	!
(8Gn	.	(8a-X\	4.en^ 4.bn/	sf	8c#X]	[-er]	f	4.B-X	sf >	4.C#X)j	sf >	4.AAn)j	sf >
4A-X)	.	4gn)\	.	.	8dn	hin-	.	.	.	.	.	.	.
.	.	.	.	.	4A#X	-ab	.	.	.	.	.	.	.
8r	.	8r	8ryy	.	.	.	.	(16D-XLL	]	(16G-XLL	p ]	(16AA-XLL	p ]
.	.	.	.	.	.	.	.	16EEnJJ)	.	16FnJJ	.	16AAJJ	.
(8B-X	.	(8bn\	4.gn^ 4.cc#X/	sf	8r	.	.	4.dn	sf	4.E-X)	sf	4.BBX)	sf
4cn)	.	4a#X)\	.	.	8d#X	durch	.	.	.	.	.	.	.
.	.	.	.	.	[4en	schmer-	.	.	.	.	.	.	.
*	*	*v	*v	*	*	*	*	*	*	*	*	*	*
*	*	*	*	*	*	*	*clefC4	*	*	*	*	*
!	!	!	!	!	!	!	!	!LO:DY:t=%s espress	!	!	!	!
8r	.	8r	.	.	.	.	[8bn	p	(8cn	p	(16g#XLL	p
.	.	.	.	.	.	.	.	.	.	.	16aJJ	.
=2	=2	=2	=2	=2	=2	=2	=2	=2	=2	=2	=2	=2
!	!	!	!	!	!	!	!	!	!	!	!LO:TX:b:t=sehr ruhig und gleichmäßig	!
1ryy	.	8r	.	8e]	.	.	8b]	.	8en	.	16b-XLL	.
.	.	.	.	.	.	.	.	.	.	.	16an	.
*	*	*^	*	*	*	*	*	*	*	*	*	*
.	.	(8ggnL	8ee-XL	p <	8gn	-zens-	.	4b	<	4cn	.	16a-X	.
.	.	.	.	.	.	.	.	.	.	.	.	16gnJJ	.
.	.	8ddd-X	8aa-X	[ >	8.B-X	-dunk-	.	.	.	.	<	16fnLL	.
.	.	.	.	.	.	.	.	.	.	.	.	16en	.
.	.	8bbnJ)	8ff#XJ	]	.	.	.	[8dd#X	[	8d-X	.	16gn	.
.	.	.	.	.	16A-X	-le	.	.	.	.	.	16enJJ	.
.	.	8r	8ryy	.	4dn	Nacht.	.	8dd#]	.	8cnL	[	16e-LL	.
.	.	.	.	.	.	.	.	.	.	.	.	16dn	.
.	.	(8aa-XL	8ffnL	>	.	.	.	4b	>	8G-X	.	16cn	.
.	.	.	.	.	.	.	.	.	.	.	.	16AnJJ	.
.	.	8gg-X	8ee-X	.	4r	.	.	.	.	8Fn	.	16G#XLL	.
.	.	.	.	.	.	.	.	.	.	.	.	16An	.
.	.	8ffnJ)	8dd-XJ	]	.	.	.	[8a#X	]	8G-J)	.	16cn	.
*	*	*	*	*	*	*	*	*	*	*	*	*)	*
.	.	.	.	.	.	.	.	.	.	.	.	16BXJJ	.
*	*	*v	*v	*	*	*	*	*	*	*	*	*	*
=3	=3	=3	=3	=3	=3	=3	=3	=3	=3	=3	=3	=3
2r	.	8r	.	1r	.	.	16a#LL]	.	16r	.	16AnLL	.
!	!	!	!	!	!	!	!	!LO:DY:t=%s sehr ruhig und gleichmäßig	!	!LO:DY:t=%s sehr ruhig und gleichmäßig	!	!
.	.	.	.	.	.	.	(16an	pp	(16EnLL	pp	16G#X	.
.	.	8ee#X' 8gg#X	p	.	.	.	16ccn	.	16Gn	.	16Dn	.
.	.	.	sf	.	.	.	.	.	.	.	.	.
.	.	.	.	.	.	.	16bnJJ	.	16e-XJJ	.	16C#XJJ)	.
.	.	4r	.	.	.	.	16a-XLL	.	16dnLL	.	8r	.
.	.	.	.	.	.	.	16gn	.	16bn	.	.	.
!	!	!	!	!	!	!	!	!	!	!	!	!LO:DY:rj
.	.	.	.	.	.	.	16en	.	16ccn	.	(16C#XLL	pp
.	.	.	.	.	.	.	16c#XJJ	.	16bJJ	.	16DnJJ	.
*	*	*	*	*	*	*	*clefF4	*	*	*	*	*
4r	.	8a-X'L 8ccn	p	.	.	.	16DnLL	<	16ee-XLL	.	16BnLL	.
.	.	.	sf	.	.	.	.	.	.	.	.	.
.	.	.	.	.	.	.	16Fn	.	16ddn	.	16d#X	.
.	.	8gn'J 8cc	.	.	.	.	16en	[ >	16bn	.	16G#X	.
.	.	.	.	.	.	.	16d#XJJ	.	16g#XJJ	.	16AnJJ	.
8r	.	4r	.	.	.	.	16dnLL	]	16bnLL	.	16cnLL	.
.	.	.	.	.	.	.	16f#X	.	16a#X	.	16e-X	<
8CCn' 8BBn	sff	.	.	.	.	.	16e#X	.	16c#X	.	16an	.
.	.	.	.	.	.	.	16c#XJJ	.	16G#XJJ)	.	16b-XZJJ	[
=4	=4	=4	=4	=4	=4	=4	=4	=4	=4	=4	=4	=4
!	!	!LO:TX:b:i:t=  sehr ruhig und gleichmäßig	!	!	!	!	!	!	!	!	!	!
4r	.	(>16c#XLL	pp	8r	.	.	16cnLL	.	16r	.	16a-XLL	>
.	.	16en	.	.	.	.	16BnJJ)	.	(16b-XLL	pp	16dn	]
.	.	16ddn	.	8a-X	Pier-	.	16r	.	16an	.	16c#X	.
.	.	16cc#XJJ	.	.	.	.	(16An	.	16cnJJ	.	16fnJJ	.
8F#X' 8cn	p	16anLL	p sf	4gn	-rot	.	16G#XLL	.	16BnLL	.	16enLL	.
.	sf	.	.	.	.	.	.	.	.	.	.	.
.	.	16g#X	.	.	.	.	16D#X	.	16dn	.	16B-X	.
8r	.	16fn	.	.	.	.	16Bn	.	16een	.	16An	.
.	.	16enJJ	.	.	.	.	16cnJJ	.	16dd#XJJ	.	16G#XJJ)	.
*	*	*	*	*	*	*	*	*	*clefG2	*	*	*
4r	.	16dnLL	.	8b-X	irrt	.	16c#XLL	.	16ff#XLL	.	16r	.
.	.	16Bn	.	.	.	.	16fn	.	16an	.	(16BB-XLL	pp
*	*	*	*	*	*	*	*clefC4	*	*	*	*	*
.	.	16B-X	.	16an	oh-	.	16bn	.	16g#X	.	16Gn	.
.	.	16GnJJ	.	16f#X	-ne	.	16d#XJJ	.	16bnJJ)	.	16EnJJ	.
*	*	*	*	*	*	*	*	*	*clefC3	*	*	*
8rBB	.	16F#<LL	p sf	8.a-X	Rast	.	16dnLL	.	16r	.	16fnLL	.
.	.	16An	.	.	.	.	16c#X	.	(16ddnLL	.	16en	.
8GG#X 8BBn\	p	16en	.	.	.	.	16cn	.	16ee-X	.	16gn	.
.	sf	.	.	.	.	.	.	.	.	.	.	.
.	.	16b-XJJ	.	16gn	um-	.	16AnJJ	.	16f#XJJ	.	16c#XJJ	.
!!pagebreak:original
=5	=5	=5	=5	=5	=5	=5	=5	=5	=5	=5	=5	=5
16r	.	16anLL	.	4en	-her	.	16G#XLL	.	16eenLL	.	16fnLL	.
(16CC#XLL	pp	16g#X	.	.	.	.	16Bn	.	16dn	.	16AnJJ)	.
16DDn	.	16f#X	.	.	.	.	16B-X	.	16c#X	.	16r	.
16BB-XJJ	.	16d#XJJ	.	.	.	.	16AnJJ	.	16G#XJJ)	.	(16a-X	.
16AAnLL	.	16bnLL	.	16r	.	.	16e-XLL	.	8r	.	16gnLL	.
16A-X	.	16a#XJJ)	.	16f#X	und	.	16BnJJ)	.	.	.	16en	.
!	!	!	!	!	!	!	!	!	!LO:TX:a:t=pizz.	!	!	!
16Fn	.	16r	.	16gn	starrt	.	(16enLL	.	8gn 8bn	sf	16g-X	.
16D-XJJ	.	(16ddn	.	16b-X	em-	.	16cnJJ	.	.	.	16e-JJ	.
*	*	*	*	*	*	*	*	*	*clefG2	*	*	*
16CnLL	.	16ee-XLL	.	8.cc#X	-por	.	16f#XLL	.	16r	.	16dnLL	.
!	!	!	!	!	!	!	!	!	!LO:TX:a:t=arco	!	!	!
16En	.	16ddn	.	.	.	.	16cn	.	(16anLL	pp	16fn	.
16dn	.	16bn	.	.	.	.	16An	.	16ddn	.	16g-X	.
16c#XJJ	.	16g#XJJ	.	16gn	in	.	16FnJJ	.	16eenJJ	.	16AnJJ	.
*	*	*	*	*	*	*	*clefF4	*	*	*	*	*
16B-XLL	.	16anLL	.	[4ff#X	To-	.	16EnLL	.	16ff#XLL	.	16dnLL	<
16DnJJ)	.	16ccn	.	.	.	.	16G#XJJ)	.	16an	.	16c#X	.
!	!	!	!	!	!	!	!LO:TX:a:t=pizz.	!	!	!	!	!
16r	.	16bn	.	.	.	.	8EEn 8Cn	sf	16gn	.	16fn	.
16AAn	.	16dnJJ	.	.	.	.	.	.	16f#XJJ	.	16a-XJJ	[
=6	=6	=6	=6	=6	=6	=6	=6	=6	=6	=6	=6	=6
*^	*	*	*	*	*	*	*	*	*	*	*	*
16r	16CCn 16BBn	sff	16c#XLL	.	8ff#X]	.	.	16r	.	16fnLL	.	16anLL	.
*v	*v	*	*	*	*	*	*	*	*	*	*	*	*
!	!LO:DY:a	!	!	!	!	!	!LO:TX:a:t=arco	!	!	!	!	!
(<16FnLL/	pp	16bn	.	.	.	.	(16FF#XLL	pp	16en	.	16g#X	.
16F#X	.	16gn	.	8ffn	-des-	.	16BB-X	.	16ddn	.	16cn	.
16GnJJ	.	16enJJ	.	.	.	.	16DnJJ	.	16cc#XJJ	>	16AnJJ)	.
*	*	*^	*	*	*	*	*	*	*	*	*	*
16AnLL	.	16e-XLL	8r	.	12ddn	-ängs-	.	16FnLL	.	16b-XLL	.	16r	.
16B-X	.	16dnJJ)	.	.	.	.	.	16G-X	.	16an	.	(16fnLL	.
.	.	.	.	.	12cc#X	-ten	.	.	.	.	.	.	.
16cn	.	16r	8an: 8cc#X:	sf	.	.	.	16e-X	.	16fn	]	16G-X	.
.	.	.	.	.	12gn	zum	.	.	.	.	.	.	.
16enJJ	.	(16gg#X	.	pp	.	.	.	16dnJJ	.	16BnJJ	.	16B-XJJ	.
*	*	*v	*v	*	*	*	*	*	*	*	*	*	*
*	*	*	*	*	*	*	*clefC4	*	*clefC3	*	*	*
16fnLL	.	16eenLL/	.	[4een	Mond,	.	16c#XLL	.	16G#XLL	.	16DnLL	.
16a-X	.	16dd#X	.	.	.	.	16bn	.	16c#XJ)	.	16En	.
16Gn	.	16bn	.	.	.	.	16g#X	.	8dnJ 8ee-X	sf	16C#X	.
16F#XJJ	.	16cc#XJJ	.	.	.	.	16dnJJ	.	.	.	16CnJJ	.
16EnLL	.	16anLL/	.	16ee]	.	.	16fnLL	.	16r	.	16BB-XLL	.
16G#X	.	16bn	.	16fn	dem	.	16cn	.	(16C#XLL	pp	16AAnJJ)	.
.	.	.	.	.	.	.	.	.	.	.	(8qEEX/	.
16Gn	.	16e-X	.	[8een	blan-	.	16Bn	.	16En	.	8FF)	sfff
16F#XJJ	.	16dnJJ	.	.	.	.	16a-XJJ	.	16GnJJ	.	.	.
=7	=7	=7	=7	=7	=7	=7	=7	=7	=7	=7	=7	=7
16FnLL	.	16cnLL	.	16ee]	.	.	16gnLL	.	16A-XLL	.	16r	.
16D-X	.	16Bn	.	16fn	-ken	.	16enJJ)	.	16An	.	(16FnLL	pp
*	*	*clefF4	*	*	*	*	*	*	*	*	*	*
!	!	!	!	!	!	!	!LO:TX:a:t=pizz.	!	!	!	!	!
16GGn	.	16G#X	.	[8ff#X	Tür-	.	8Dn 8bn	.	16c#X	.	16eX	.
16AAnJJ	.	16EnJJ	.	.	.	.	.	.	16B-XJJ)	.	16d#XJJ	.
16BB-XLL	.	16E-XLL)	.	16ff#]	.	.	16r	.	16En 16Gn	sf	16anLL	.
!	!	!	!	!	!	!	!LO:TX:a:t=arco	!	!	!	!	!
16DDn	.	16Cn^JJ 16An	sf	16ccn	-kensch-	.	(16c#XLL	pp <	16r	.	16g#X	.
16CCn	.	16r	.	8bn	-wert	.	16d#X	.	(16g#XLL	pp	16bX	.
16EE-XJJ)	.	16En^ 16d-X	sf	.	.	.	16gnJJ	.	16AnJJ)	.	16dJJ)	.
!	!	!	!	!	!	!	!	!	!LO:TX:a:t=+	!	!	!
!	!	!	!	!	!	!	!	!	!LO:TX:a:t=pizz.	!	!	!
(16GGnLL	.	(>16BnLL	.	16r	.	.	16f#XLL	[ >	16Cn	sf	(16c#XLL	.
*	*	*clefG2	*	*	*	*	*	*	*	*	*	*
!	!	!	!	!	!	!	!	!	!LO:TX:a:t=arco	!	!	!
16En	.	16an	.	16bn	auf	.	16d#X	.	(16B-XLL	.	16g)	.
16B-X	.	16c#X	.	16dn	ei-	.	16Bn	.	16E-X	.	(16bnX^	ff
16AnJJ)	.	16gnJJ	.	16c#X	-nem	.	16EnJJ)	]	16B-JJ)	.	16d#XJJ)	pp
16BB-XLL	.	16c#XLL)	.	8.f#X	schwar-	.	8dn	.	(16E-XLL	.	16bn^LL	ff
!	!	!	!LO:DY:a	!	!	!	!	!	!	!	!	!
16DnJJ 16F#X	sf	16cn^JJ 16en	sf	.	.	.	.	.	16B-X)	.	(16d#X	pp
!	!	!	!	!	!	!	!LO:TX:a:t=+	!	!	!	!	!
!	!	!	!	!	!	!	!LO:TX:a:t=pizz.	!	!	!	!	!
16r	.	(16ddnLL	pp	.	.	.	16An	ff	(16A-X 16gn	sf	16eX	.
!	!	!	!	!	!	!	!LO:TX:a:t=arco	!	!	!	!	!
16DDn 16FFn 16C#X	sf	16bnJJ)	.	16An	-zen	.	(16cn	p	16enJJ)	.	16G#XJJ)	.
=8	=8	=8	=8	=8	=8	=8	=8	=8	=8	=8	=8	=8
!	!	!	!	!	!	!	!	!	!	!	!LO:TX:a:t=rit.–––––––	!
(16EEnLL	.	16d-X^>LL 16ccn	.	[4B-X	Sei-	.	16BnLL	.	(16anLL	.	(16GnLL	.
16GGn	.	(>16bn	.	.	.	.	16d#X^	sf	16Cn^> 16G#X)	sf	16En^	sf
16AA-X	.	16gn	.	.	.	.	16Dn	.	(16Bn	.	16F#X	.
16GG-XJJ	.	16e-XJJ	.	.	.	.	16fn^JJ)	sf	16Cn^>JJ 16c#X)	sf	16An^JJ)	sf
16BBnLL	.	16dnLL	.	16B-]	.	.	(16B-XLL	.	(16E-XLL	.	(16AA-XLL	.
16C#X	.	16cn	.	16F#X	-den-	.	16An	.	16G-X	.	16BB-X	.
16Fn)	.	16B-X)	.	16An	-kis-	.	16a-X^	sf	16en^>	sf	16BBn^	sf
!	!LO:DY:b	!	!	!	!	!	!	!	!	!	!	!
16C#X^JJ 16En	sf	16G-X^>JJ 16fn	sf	16d#X	-sen.	.	16cnJJ)	.	16AnJJ)	.	16B-XJJ)	.
16FFnLL 16E-X	.	16GnLL 16f#X	f	2r	.	.	16d-XLL	f	16CnLL 16B-X	f	16bnLL	f
!	!	!	!LO:DY:a	!	!	!	!	!	!	!	!	!
16Cn^< 16An	.	16g#X^	sf	.	.	.	16dn^	sf	16En^>	sf	16fn^	sf
16BBn	.	16G#X 16f#X	.	.	.	.	16ccn	.	16B-X 16dn	.	16an	.
!	!	!	!LO:DY:a	!	!	!	!	!	!	!	!	!
16FF#X^<JJ 16Cn	.	16Bn 16En<JJ	sf	.	.	.	16e-X^JJ	sf	16gn^>JJ	sf	16A-X^JJ	sf
16EnLL 16A-X	.	16cnLL 16fn	ff <	.	.	.	32gnLLL	ff <	32dnLLL 32dd#X	ff <	16GGnLL	ff <
.	.	.	.	.	.	.	32gJ	.	32dJ 32dd#	.	.	.
16E-X 16Gn	.	16en 16g#X	.	.	.	.	32bnL	.	32c#XL 32dn	.	16FFn	.
.	.	.	.	.	.	.	32bJ	.	32c#J 32d	.	.	.
16Fn 16An	.	16g#X 16ccn 16een	.	.	.	.	32DnL 32b-X	.	32GnL 32f#X	.	16EE-X	.
.	.	.	.	.	.	.	32D 32b-J	.	32GJ 32f#	.	.	.
*	*	*	*	*	*	*	*clefF4	*	*	*	*	*
16AnJJ 16c#X	.	16g-XJJ 16b-X 16ee-X	.	.	.	.	32GGnL 32Fn	.	32CnL 32G#X	.	16EEnJJ	[
.	.	.	[	.	.	.	32GGJJJ 32F	[	32CJJJ 32G#	[	.	.
*	*	*clefF4	*	*Xsprech	*	*	*clefC4	*	*	*	*	*
=	=	=	=	=	=	=	=	=	=	=	=	=
*-	*-	*-	*-	*-	*-	*-	*-	*-	*-	*-	*-	*-
!!!system-decoration: [(s1,s2,s3)]s4[({(s5,s6)})]
!!!RDF**kern: < = below
!!!RDF**kern: > = above
!!!RDF**kern: j = marked note, color="magenta", text="extra)"
!!!EED: Jason Lee
!!!EEV: 2022/09/27
!!!EED2: Bryan Bell
!!!Suter_Work_ID: Sch-20
!!!Suter_Example_Number: 197
!!!Suter_Example_ID: Sch-20/40-42/fin de 9-16
!!!Premiere_Location: Berlin,Germany
!!!Other_Tsigs: none
!!!Full_Unit_Duration: 2:13
!!!First_Publication_Year: 1914
!!!First_Public_Performance_Year: 1912
!!!Example_Total_Measures: 8
!!!Example_Timestamp_Duration: 23
!!!Example_Start_Tsig_Type: simple quadruple
!!!Example_Start_Tsig_Mean_Beat_Rate: 126
!!!Example_Start_Tsig_Beat_Rate: 126
!!!Example_Start_Tsig_Beat: quarter
!!!Example_Start_Tsig: 4/4
!!!Example_Start_Timestamp: 0:23
!!!Example_Start_Tempo_Expression: [Ziemlich bewegte]
!!!Example_Start_Notated_Beat_Rate: [126]
!!!Example_Start_Notated_Beat: [quarter]
!!!Example_Start_Measure: 9
!!!Example_Metadata_Validated: Y
!!!Example_End_Timestamp: 0:46
!!!Example_End_Measure: 16
!!!Example_Dataset: T
!!!Editorial_Comments: Example Start Notated Beat and Example Start Notated Beat Rate [quarter=126] based on most recent notated beat rate (SWFU, m. 1). Example Start Tempo Expression [Ziemlich bewegte] based on most recent notated tempo expression (SWFU, m. 1).
!!!Death_Place: Los Angeles,United States
!!!Death_Date: 13-Jul-1951
!!!Changing_Tsig: no
!!!Birth_Place: Vienna,Austria
!!!Birth_Date: 13-Sep-1874
!!!Audio_Example_Quarter_Note_Tempo:
!!!Audio_Example_Duration: 23.464
!!!EEV2: 2022/10/20
